app/assets/images/icon_uvl.svg

<?xml version="1.0" encoding="UTF-8" standalone="no"?>
<!-- Created with Inkscape (http://www.inkscape.org/) -->

<svg
   xmlns:dc="http://purl.org/dc/elements/1.1/"
   xmlns:cc="http://creativecommons.org/ns#"
   xmlns:rdf="http://www.w3.org/1999/02/22-rdf-syntax-ns#"
   xmlns:svg="http://www.w3.org/2000/svg"
   xmlns="http://www.w3.org/2000/svg"
   xmlns:sodipodi="http://sodipodi.sourceforge.net/DTD/sodipodi-0.dtd"
   xmlns:inkscape="http://www.inkscape.org/namespaces/inkscape"
   width="92"
   height="28"
   viewBox="0 0 24.341666 7.4083335"
   version="1.1"
   id="svg8"
   inkscape:version="0.92.3 (2405546, 2018-03-11)"
   sodipodi:docname="icon_uvl.svg">
  <defs
     id="defs2" />
  <sodipodi:namedview
     id="base"
     pagecolor="#ffffff"
     bordercolor="#666666"
     borderopacity="1.0"
     inkscape:pageopacity="0.0"
     inkscape:pageshadow="2"
     inkscape:zoom="10.291478"
     inkscape:cx="27.525323"
     inkscape:cy="15.672322"
     inkscape:document-units="px"
     inkscape:current-layer="layer1"
     showgrid="false"
     units="px"
     inkscape:showpageshadow="false"
     inkscape:window-width="1920"
     inkscape:window-height="1032"
     inkscape:window-x="0"
     inkscape:window-y="23"
     inkscape:window-maximized="1"
     showguides="false" />
  <metadata
     id="metadata5">
    <rdf:RDF>
      <cc:Work
         rdf:about="">
        <dc:format>image/svg+xml</dc:format>
        <dc:type
           rdf:resource="http://purl.org/dc/dcmitype/StillImage" />
        <dc:title />
      </cc:Work>
    </rdf:RDF>
  </metadata>
  <g
     inkscape:label="Livello 1"
     inkscape:groupmode="layer"
     id="layer1"
     transform="translate(0,-289.59165)">
    <g
       id="g1123"
       transform="matrix(0.60208268,0,0,0.60208268,1.4786799,116.70748)">
      <g
         transform="matrix(1.2564977,0,0,1.2564977,-0.95796264,-75.229709)"
         id="layer1-2"
         inkscape:label="Livello 1">
        <path
           id="rect842"
           transform="matrix(0.26458333,0,0,0.26458333,0,289.59165)"
           d="M 2.0488281,2.1113281 V 25.888672 H 25.951172 V 2.1113281 Z m 3.2753907,5.8066407 2.453125,0.6582031 -0.9980469,3.7226561 c -0.115814,0.432224 -0.1443847,0.743234 -0.085937,0.935547 0.059308,0.189101 0.2141144,0.318106 0.4628906,0.384766 0.2456609,0.06582 0.4430266,0.02828 0.59375,-0.111329 0.1507234,-0.139603 0.2831746,-0.420872 0.3964844,-0.84375 L 9.1445312,8.9414062 11.597656,9.5996094 10.605469,13.302734 c -0.129979,0.485087 -0.270464,0.875287 -0.419922,1.171875 -0.146337,0.297399 -0.3170687,0.533079 -0.513672,0.707032 -0.3877986,0.352693 -0.8493254,0.579333 -1.3828125,0.679687 -0.5335066,0.100427 -1.1026081,0.07068 -1.7089844,-0.0918 C 5.9705914,15.60622 5.4586918,15.347866 5.046875,14.994141 4.6350582,14.640415 4.3509223,14.212159 4.1914062,13.712891 c -0.081006,-0.245 -0.1109836,-0.52979 -0.089844,-0.857422 0.02114,-0.327633 0.097993,-0.739967 0.2304687,-1.234375 z m 6.5800782,1.7636718 2.660156,0.7128904 0.06055,2.666016 c 0.0091,0.389047 0.0052,0.714471 -0.01172,0.976562 -0.0138,0.262951 -0.04317,0.504738 -0.08594,0.726563 l 0.04687,0.01367 c 0.09273,-0.221663 0.201843,-0.453269 0.326172,-0.69336 0.127418,-0.239158 0.275147,-0.495159 0.445312,-0.769531 l 1.443359,-2.324219 2.607422,0.699219 -4.427734,6.132813 -2.285156,-0.613282 z m 7.804687,2.0917974 2.457032,0.658203 -1.234375,4.613281 2.386718,0.638672 -0.59375,2.216797 -4.845703,-1.298829 z"
           style="opacity:1;fill:#e3010f;fill-opacity:1;stroke:none;stroke-width:1.00157475;stroke-linecap:round;stroke-linejoin:round;stroke-miterlimit:4;stroke-dasharray:none;stroke-opacity:1"
           inkscape:connector-curvature="0" />
        <g
           id="text846"
           style="font-style:normal;font-weight:normal;font-size:2.61666107px;line-height:1.25;font-family:sans-serif;letter-spacing:0px;word-spacing:0px;fill:#000000;fill-opacity:1;stroke:none;stroke-width:0.12265598"
           transform="rotate(15)"
           aria-label="UVL" />
      </g>
    </g>
    <g
       aria-label="UVL"
       style="font-style:normal;font-weight:normal;font-size:5.15961409px;line-height:1.25;font-family:sans-serif;letter-spacing:0px;word-spacing:0px;fill:#666666;fill-opacity:1;stroke:none;stroke-width:0.32247588"
       id="text902">
      <path
         d="m 13.475897,291.44663 v 2.29512 q 0,0.75077 -0.395537,1.12111 -0.395537,0.37034 -1.191649,0.37034 -0.808709,0 -1.204246,-0.37034 -0.395537,-0.37034 -0.395537,-1.12111 v -2.29512 h 0.783516 v 2.17167 q 0,0.45601 0.201547,0.68778 0.201548,0.22927 0.602123,0.22927 0.403095,0 0.609681,-0.23178 0.206586,-0.23178 0.206586,-0.68527 v -2.17167 z"
         style="font-style:normal;font-variant:normal;font-weight:normal;font-stretch:normal;font-family:'Futura Hv BT';-inkscape-font-specification:'Futura Hv BT';fill:#666666;stroke-width:0.32247588"
         id="path2407" />
      <path
         d="m 15.229359,295.13495 -1.362964,-3.68832 h 0.871693 l 0.718012,2.30016 q 0.02016,0.0705 0.06298,0.26201 0.04283,0.19147 0.0907,0.43585 0.03275,-0.23682 0.07054,-0.42073 0.04031,-0.18391 0.0781,-0.30232 l 0.72809,-2.27497 h 0.861616 l -1.373042,3.68832 z"
         style="font-style:normal;font-variant:normal;font-weight:normal;font-stretch:normal;font-family:'Futura Hv BT';-inkscape-font-specification:'Futura Hv BT';fill:#666666;stroke-width:0.32247588"
         id="path2409" />
      <path
         d="m 17.751222,295.13495 v -3.68832 h 0.788554 v 3.01817 h 1.259671 v 0.67015 z"
         style="font-style:normal;font-variant:normal;font-weight:normal;font-stretch:normal;font-family:'Futura Hv BT';-inkscape-font-specification:'Futura Hv BT';fill:#666666;stroke-width:0.32247588"
         id="path2411" />
    </g>
    <path
       style="color:#000000;font-style:normal;font-variant:normal;font-weight:normal;font-stretch:normal;font-size:medium;line-height:normal;font-family:sans-serif;font-variant-ligatures:normal;font-variant-position:normal;font-variant-caps:normal;font-variant-numeric:normal;font-variant-alternates:normal;font-feature-settings:normal;text-indent:0;text-align:start;text-decoration:none;text-decoration-line:none;text-decoration-style:solid;text-decoration-color:#000000;letter-spacing:normal;word-spacing:normal;text-transform:none;writing-mode:lr-tb;direction:ltr;text-orientation:mixed;dominant-baseline:auto;baseline-shift:baseline;text-anchor:start;white-space:normal;shape-padding:0;clip-rule:nonzero;display:inline;overflow:visible;visibility:visible;opacity:1;isolation:auto;mix-blend-mode:normal;color-interpolation:sRGB;color-interpolation-filters:linearRGB;solid-color:#000000;solid-opacity:1;vector-effect:none;fill:#666666;fill-opacity:1;fill-rule:nonzero;stroke:none;stroke-width:0.32130393;stroke-linecap:butt;stroke-linejoin:miter;stroke-miterlimit:4;stroke-dasharray:none;stroke-dashoffset:0;stroke-opacity:1;color-rendering:auto;image-rendering:auto;shape-rendering:auto;text-rendering:auto;enable-background:accumulate"
       d="M 3.7050781,289.5918 C 1.661224,289.5918 -3.0569724e-6,291.25107 0,293.29492 2.7108947e-6,295.33877 1.6612281,297 3.7050781,297 c 2.04385,0 3.7031223,-1.66123 3.703125,-3.70508 3.1e-6,-2.04385 -1.6592709,-3.70312 -3.703125,-3.70312 z m 0,0.32031 c 1.8702084,0 3.3828153,1.5126 3.3828125,3.38281 -2.5e-6,1.87021 -1.5126079,3.38281 -3.3828125,3.38281 -1.8702046,0 -3.38280999,-1.5126 -3.38281248,-3.38281 -2.79e-6,-1.87021 1.51260408,-3.38281 3.38281248,-3.38281 z"
       id="path904"
       inkscape:connector-curvature="0" />
  </g>
</svg>

<?xml version="1.0" encoding="UTF-8" standalone="no"?>
<!-- Created with Inkscape (http://www.inkscape.org/) -->

<svg
   xmlns:dc="http://purl.org/dc/elements/1.1/"
   xmlns:cc="http://creativecommons.org/ns#"
   xmlns:rdf="http://www.w3.org/1999/02/22-rdf-syntax-ns#"
   xmlns:svg="http://www.w3.org/2000/svg"
   xmlns="http://www.w3.org/2000/svg"
   xmlns:sodipodi="http://sodipodi.sourceforge.net/DTD/sodipodi-0.dtd"
   xmlns:inkscape="http://www.inkscape.org/namespaces/inkscape"
   width="28"
   height="28"
   viewBox="0 0 7.4083332 7.4083335"
   version="1.1"
   id="svg8"
   inkscape:version="0.92.2 5c3e80d, 2017-08-06"
   sodipodi:docname="icon_uvl.svg">
  <defs
     id="defs2" />
  <sodipodi:namedview
     id="base"
     pagecolor="#ffffff"
     bordercolor="#666666"
     borderopacity="1.0"
     inkscape:pageopacity="0.0"
     inkscape:pageshadow="2"
     inkscape:zoom="11.907173"
     inkscape:cx="10.498489"
     inkscape:cy="10.596881"
     inkscape:document-units="px"
     inkscape:current-layer="layer1"
     showgrid="false"
     units="px"
     inkscape:showpageshadow="false"
     inkscape:window-width="1920"
     inkscape:window-height="1156"
     inkscape:window-x="0"
     inkscape:window-y="0"
     inkscape:window-maximized="1"
     showguides="false" />
  <metadata
     id="metadata5">
    <rdf:RDF>
      <cc:Work
         rdf:about="">
        <dc:format>image/svg+xml</dc:format>
        <dc:type
           rdf:resource="http://purl.org/dc/dcmitype/StillImage" />
        <dc:title></dc:title>
      </cc:Work>
    </rdf:RDF>
  </metadata>
  <g
     inkscape:label="Livello 1"
     inkscape:groupmode="layer"
     id="layer1"
     transform="translate(0,-289.59165)">
    <path
       style="opacity:1;fill:#e3010f;fill-opacity:1;stroke:none;stroke-width:1.00157475;stroke-linecap:round;stroke-linejoin:round;stroke-miterlimit:4;stroke-dasharray:none;stroke-opacity:1"
       d="M 2.0488281 2.1113281 L 2.0488281 25.888672 L 25.951172 25.888672 L 25.951172 2.1113281 L 2.0488281 2.1113281 z M 5.3242188 7.9179688 L 7.7773438 8.5761719 L 6.7792969 12.298828 C 6.6634829 12.731052 6.6349122 13.042062 6.6933594 13.234375 C 6.7526673 13.423476 6.9074738 13.552481 7.15625 13.619141 C 7.4019109 13.684965 7.5992766 13.647418 7.75 13.507812 C 7.9007234 13.368209 8.0331746 13.08694 8.1464844 12.664062 L 9.1445312 8.9414062 L 11.597656 9.5996094 L 10.605469 13.302734 C 10.47549 13.787821 10.335005 14.178021 10.185547 14.474609 C 10.03921 14.772008 9.8684783 15.007688 9.671875 15.181641 C 9.2840764 15.534334 8.8225496 15.760974 8.2890625 15.861328 C 7.7555559 15.961755 7.1864544 15.932009 6.5800781 15.769531 C 5.9705914 15.60622 5.4586918 15.347866 5.046875 14.994141 C 4.6350582 14.640415 4.3509223 14.212159 4.1914062 13.712891 C 4.1104 13.467891 4.0804226 13.183101 4.1015625 12.855469 C 4.1227024 12.527836 4.1995552 12.115502 4.3320312 11.621094 L 5.3242188 7.9179688 z M 11.904297 9.6816406 L 14.564453 10.394531 L 14.625 13.060547 C 14.634071 13.449594 14.630189 13.775018 14.613281 14.037109 C 14.599482 14.30006 14.570113 14.541847 14.527344 14.763672 L 14.574219 14.777344 C 14.666951 14.555681 14.776062 14.324075 14.900391 14.083984 C 15.027809 13.844826 15.175538 13.588825 15.345703 13.314453 L 16.789062 10.990234 L 19.396484 11.689453 L 14.96875 17.822266 L 12.683594 17.208984 L 11.904297 9.6816406 z M 19.708984 11.773438 L 22.166016 12.431641 L 20.931641 17.044922 L 23.318359 17.683594 L 22.724609 19.900391 L 17.878906 18.601562 L 19.708984 11.773438 z "
       transform="matrix(0.26458333,0,0,0.26458333,0,289.59165)"
       id="rect842" />
    <g
       aria-label="UVL"
       transform="rotate(15)"
       style="font-style:normal;font-weight:normal;font-size:2.61666107px;line-height:1.25;font-family:sans-serif;letter-spacing:0px;word-spacing:0px;fill:#000000;fill-opacity:1;stroke:none;stroke-width:0.12265598"
       id="text846" />
  </g>
</svg>
